storage/app/icons/phosphoricons/thin/moped-front-thin.svg

<svg xmlns="http://www.w3.org/2000/svg" fill="currentColor" viewBox="0 0 256 256"><path d="M208 44h-44.23a36 36 0 0 0-71.54 0H48a4 4 0 0 0 0 8h44.23a36.06 36.06 0 0 0 17.34 26.91A60.11 60.11 0 0 0 68 136v64a12 12 0 0 0 12 12h20v4a28 28 0 0 0 56 0v-4h20a12 12 0 0 0 12-12v-64a60.11 60.11 0 0 0-41.57-57.09A36.06 36.06 0 0 0 163.77 52H208a4 4 0 0 0 0-8m-60 172a20 20 0 0 1-40 0v-48a20 20 0 0 1 40 0Zm32-80v64a4 4 0 0 1-4 4h-20v-36a28 28 0 0 0-56 0v36H80a4 4 0 0 1-4-4v-64a52 52 0 0 1 104 0m-52-60a28 28 0 1 1 28-28 28 28 0 0 1-28 28"/></svg>

<svg xmlns="http://www.w3.org/2000/svg" viewBox="0 0 256 256" fill="currentColor"><path d="M208,44H163.77a36,36,0,0,0-71.54,0H48a4,4,0,0,0,0,8H92.23a36.06,36.06,0,0,0,17.34,26.91A60.11,60.11,0,0,0,68,136v64a12,12,0,0,0,12,12h20v4a28,28,0,0,0,56,0v-4h20a12,12,0,0,0,12-12V136a60.11,60.11,0,0,0-41.57-57.09A36.06,36.06,0,0,0,163.77,52H208a4,4,0,0,0,0-8ZM148,216a20,20,0,0,1-40,0V168a20,20,0,0,1,40,0Zm32-80v64a4,4,0,0,1-4,4H156V168a28,28,0,0,0-56,0v36H80a4,4,0,0,1-4-4V136a52,52,0,0,1,104,0ZM128,76a28,28,0,1,1,28-28A28,28,0,0,1,128,76Z"/></svg>
